X: 1
T:The Iron Man
M:4/4
L:1/8
R:Strathspey
K:A
C:J. Scott Skinner
E|"A"A2 c>A "E7"B>G"A"A>B|"A"c2 e>c "E7"d>B"A"c>e|"D"f2 d>f "A"e2 c>e|"B
m"(3dcB (3cBA "E7"Gc|
"A"A2 c>A "E7"B>G"A"A>B|"A"c2 e>c "E7"d>B"A"c>e|"D"f2 d>f "A"e<ac>A|"Bm"
(3Bcd "E7"(3dcB "A"c<A A|
|g|"A"a>Ag>A f>Ae>A|"A"c/B/A e>g  a>ec>A|"E7"d>Ec>E B>Ec>E|"B7"d/c/B c/B
/A "E7"(3Bcd (3efg|
"A"a>Ag>A f>Ae>A|"A"c/B/A e>g  a>ec>A|"D"d2 f>d "A"e/a/g f/e/d|"Bm"c/B/A
 "E7"G/A/B "A"A2 A||
